X:577
T: HERZIG LIEB SCHAETZELE
N: E0540
O: Europa, Mitteleuropa, Deutschland, Sueddeutschland
R: Liebes - Lied
M: 3/8
L: 1/16
K: G
 | G2GABc | d2ded2 | c2B2c2 | B4z2 |
G2GABc | d2ded2 | c2B2c2 | B4z2 |
d2ded2 | c2cdc2 | B2BcB2 | A2A2A2 |
G2GABc | d2ded2 | c2B2c2 | B4z2

@@@ Tune index: 4227
